Catalina-dark/actions/22/stroke-cap-bevel.svg

<svg viewBox="0 0 22 22" xmlns="http://www.w3.org/2000/svg">
<defs>
<style id="current-color-scheme" type="text/css">.ColorScheme-Text {
        color:#dedede
      }</style>
</defs>
<path class="ColorScheme-Text" d="m9.2422 3-4.2422 4.2422 0.0078125 0.0078125h-0.0078125v2.75 9h1 3v-1-8.3438l2.6562-2.6562h4.3438 1v-1-2-1h-1-5.0098-1.7461-0.0019531zm1.7578 6v1 9h1 3v-1-5h1 1v-1-2-1h-1-1-3-1z" fill="currentColor"/>
</svg>

<svg xmlns="http://www.w3.org/2000/svg" viewBox="0 0 22 22">
  <defs id="defs3051">
    <style type="text/css" id="current-color-scheme">
      .ColorScheme-Text {
        color:#f2f2f2
      }
      </style>
  </defs>
 <path 
     style="fill:currentColor;fill-opacity:1;stroke:none"      
	 class="ColorScheme-Text"
        d="M 9.2421875 3 L 5 7.2421875 L 5.0078125 7.25 L 5 7.25 L 5 10 L 5 19 L 6 19 L 9 19 L 9 18 L 9 9.65625 L 11.65625 7 L 16 7 L 17 7 L 17 6 L 17 4 L 17 3 L 16 3 L 10.990234 3 L 9.2441406 3 L 9.2421875 3 z M 11 9 L 11 10 L 11 19 L 12 19 L 15 19 L 15 18 L 15 13 L 16 13 L 17 13 L 17 12 L 17 10 L 17 9 L 16 9 L 15 9 L 12 9 L 11 9 z "
     />
</svg>
